X:1
T:Rock of ages, cleft for me
T:Thomas Hastings (1784-1872)
T:Public Domain
Z:Public Domain
%%score { ( 1 2 ) | ( 3 4 ) }
L:1/8
M:6/4
K:Bb
V:1 treble nm="Piano" snm="Pno."
V:2 treble 
V:3 bass 
V:4 bass 
V:1
 F3 G | F4 D4 B3 G | F8 B2 c2 | d6 c2 B2 A2 | B8 A3 B | c6 c2 A2 F2 | B8 A3 B | c6 c2 A2 F2 | %8
 B8 F3 G | F4 D4 B3 G | F8 B2 c2 | d6 c2 B2 A2 | B8 |] %13
V:2
 D3 E | D4 B,4 F3 E | D8 F2 F2 | F6 G2 F2 E2 | D8 C3 D | E6 E2 E2 E2 | D8 C3 D | E6 E2 E2 E2 | %8
 D8 D3 E | D4 B,4 F3 E | D8 D2 E2 | F6 G2 F2 E2 | D8 |] %13
V:3
 B,3 B, | B,4 F,4 B,3 B, | B,8 B,2 A,2 | B,6 E2 D2 C2 | B,8 F,3 F, | F,6 A,2 C2 A,2 | B,8 F,3 B, | %7
 A,6 A,2 C2 A,2 | B,8 B,3 B, | B,4 F,4 B,3 B, | B,8 B,2 A,2 | B,6 E2 D2 C2 | B,8 |] %13
V:4
 B,,3 B,, | B,,4 B,,4 D,3 E, | B,,8 D,2 F,2 | B,6 E,2 F,2 F,2 | B,,8 F,3 F, | F,6 F,2 F,2 F,2 | %6
 B,,8 F,3 F, | F,6 F,2 F,2 F,2 | B,,8 B,,3 B,, | B,,4 B,,4 D,3 E, | B,,8 G,2 F,2 | %11
 B,6 E,2 F,2 F,2 | B,,8 |] %13

